X: 43322
T: Woody Woodpecker, The
R: reel
M: 4/4
K: Fmajor
AccA FcAF|DFFD B,2D2|CFFA cAFA|Gcc=Bc2C2|
AccA FcAF|DFFD B,2D2|CFFA GcBG|1 A2F2F2C2:|A2F2F2Bc|
|:dBBd fdBd|AccAF2 GF|EccE cEEc|AccAc2Ac|
dBBd fdBd|AccAF2 GF|EccE GcBG|1 A2F2F2Bc:|2 A2F2F2||

